src/assets/img/refresh.svg

<svg xmlns="http://www.w3.org/2000/svg" width="48" height="48"><path d="M44.772 25.851a3 3 0 0 1-.651 3.27l-6 6A2.992 2.992 0 0 1 36 36a2.992 2.992 0 0 1-2.121-.879l-6-6a3.005 3.005 0 0 1-.651-3.27A3.002 3.002 0 0 1 30 24h3c0-6.627-5.373-12-12-12S9 17.373 9 24s5.373 12 12 12c1.563 0 3.042-.318 4.413-.861l4.524 4.47A17.897 17.897 0 0 1 21 42c-9.939 0-18-8.061-18-18S11.061 6 21 6s18 8.061 18 18h3c1.212 0 2.31.732 2.772 1.851z" fill="#666"/></svg>

<?xml version="1.0" encoding="UTF-8" standalone="no"?>
<!-- Generator: IcoMoon.io -->

<svg
   xmlns:dc="http://purl.org/dc/elements/1.1/"
   xmlns:cc="http://creativecommons.org/ns#"
   xmlns:rdf="http://www.w3.org/1999/02/22-rdf-syntax-ns#"
   xmlns:svg="http://www.w3.org/2000/svg"
   xmlns="http://www.w3.org/2000/svg"
   xmlns:sodipodi="http://sodipodi.sourceforge.net/DTD/sodipodi-0.dtd"
   xmlns:inkscape="http://www.inkscape.org/namespaces/inkscape"
   version="1.1"
   id="Layer_1"
   x="0px"
   y="0px"
   width="48px"
   height="48px"
   viewBox="0 0 48 48"
   enable-background="new 0 0 16 16"
   xml:space="preserve"
   fill="#000000"
   sodipodi:docname="refresh.svg"
   inkscape:version="0.92.2 2405546, 2018-03-11"><metadata
   id="metadata9"><rdf:RDF><cc:Work
       rdf:about=""><dc:format>image/svg+xml</dc:format><dc:type
         rdf:resource="http://purl.org/dc/dcmitype/StillImage" /></cc:Work></rdf:RDF></metadata><defs
   id="defs7" /><sodipodi:namedview
   pagecolor="#ffffff"
   bordercolor="#666666"
   borderopacity="1"
   objecttolerance="10"
   gridtolerance="10"
   guidetolerance="10"
   inkscape:pageopacity="0"
   inkscape:pageshadow="2"
   inkscape:window-width="1852"
   inkscape:window-height="1051"
   id="namedview5"
   showgrid="false"
   inkscape:zoom="4.9166667"
   inkscape:cx="23.694915"
   inkscape:cy="24"
   inkscape:window-x="68"
   inkscape:window-y="0"
   inkscape:window-maximized="1"
   inkscape:current-layer="Layer_1" /> <path
   d="M 44.772,25.851 C 45.237,26.973 44.979,28.263 44.121,29.121 L 38.121,35.121 C 37.536,35.706 36.768,36.00 36.00,36.00 C 35.232,36.00 34.464,35.706 33.879,35.121 L 27.879,29.121 C 27.021,28.263 26.766,26.973 27.228,25.851 C 27.69,24.732 28.788,24.00 30.00,24.00 L 33.00,24.00 C 33.00,17.373 27.627,12.00 21.00,12.00 C 14.373,12.00 9.00,17.373 9.00,24.00 C 9.00,30.627 14.373,36.00 21.00,36.00 C 22.563,36.00 24.042,35.682 25.413,35.139 L 29.937,39.609 C 27.303,41.121 24.255,42.00 21.00,42.00 C 11.061,42.00 3.00,33.939 3.00,24.00 C 3.00,14.061 11.061,6.00 21.00,6.00 C 30.939,6.00 39.00,14.061 39.00,24.00 L 42.00,24.00 C 43.212,24.00 44.31,24.732 44.772,25.851 Z"
   id="path2"
   style="fill:#666666;fill-opacity:1" /></svg>
